X:34
T:Juringius
R:Polska
O:Småland?
N:Se även [[Musik/207|+]]
B:Jämför [[http://smus.se/earkiv/fmk/browselarge.php?lang=sw&katalogid=MMD+31&bildnr=00003|SMUS - katalog MMD31 bild 3]] från [[Platser/Riga]]
M:3/4
L:1/8
K:Bm
f2 Bf Bf|g>f ef ga|e2 Ae Ae|
f>e de fg|f2 ed cB|A/B/c/A/ B4:|
|:c2 Ec Ec|d>c Bc de|c2 Ec Ec|d>c Bc de|
e3/2z/ Ae Ae|f>e de fg|f2 ed cB|A/B/c/A/ B4:|
(:musicend:)

Denna låt har [[!lite information]]. Och stämmer O-fältet? Det finns en notbok på SMUS, [[http://www.smus.se/earkiv/fmk/browsevol.php?lang=sw&katalogid=MMD+1&bildnr=00020|MMD1]] av en [[Personer/Magnus Juringius]] från [[Platser/Östergötland]]. Jämför med [[http://www.folkwiki.se/Musik/207|Polonäs, sexdregasamlingen del 2 nr 56]].

%green% Jag har hört att denna låt inte alls är efter Juringius utan att det är ett missförstånd som uppstått efter att den på en låtkurs lärts ut ihop med en annan låt som är efter Juringius. Det verkar rimligt med tanke på att den inte finns med i MMD1 (se länk ovan). /Nils

%red% Den var i alla fall spridd långt utanför Småland på 1700-talet. En förklaring till den något ovanliga tonarten finns i en gammal notbok från Riga (adress nedan!), som Nils Dencker skrev av på 1930-talet. Där finns på första notsidan en mycket snarlik serra ("seras") i d-moll, med två extra takter i B-delen. Låten är noterad i s.k. fransk violinklav, vilket framgår av förtecknen, men den som är van vid "vanlig" G-klav kan mycket väl läsa och spela den i h-moll. Var den uppstått framgår inte och när den kommit till Sverige har jag inga teorier om, men uppenbart är - förutom spridningen - att inte bara enskilda toner ändrats, utan att hela låten vid något tillfälle sänkts en liten ters! /Peter

%blue% [[http://smus.se/earkiv/fmk/browselarge.php?lang=sw&katalogid=MMD+31&bildnr=00003]]
Vals från Jämtland efter Kristian Oskarsson, allmänt spelad i stora delar av Sverige.

(:music:)
